packages/IcoMoon/src/BaffledIcon/index.svg

<svg version="1.1" xmlns="http://www.w3.org/2000/svg" width="16" height="16" viewBox="0 0 16 16">
<path d="M8 16c4.418 0 8-3.582 8-8s-3.582-8-8-8-8 3.582-8 8 3.582 8 8 8zM8 1.5c3.59 0 6.5 2.91 6.5 6.5s-2.91 6.5-6.5 6.5-6.5-2.91-6.5-6.5 2.91-6.5 6.5-6.5z"></path>
<path d="M6 6.5c0 0.276-0.224 0.5-0.5 0.5s-0.5-0.224-0.5-0.5c0-0.276 0.224-0.5 0.5-0.5s0.5 0.224 0.5 0.5z"></path>
<path d="M5.5 5c0.828 0 1.5 0.672 1.5 1.5s-0.672 1.5-1.5 1.5-1.5-0.672-1.5-1.5 0.672-1.5 1.5-1.5zM5.5 4c-1.378 0-2.5 1.122-2.5 2.5s1.122 2.5 2.5 2.5 2.5-1.122 2.5-2.5-1.122-2.5-2.5-2.5v0z"></path>
<path d="M11 6.5c0 0.276-0.224 0.5-0.5 0.5s-0.5-0.224-0.5-0.5c0-0.276 0.224-0.5 0.5-0.5s0.5 0.224 0.5 0.5z"></path>
<path d="M10.5 5c0.828 0 1.5 0.672 1.5 1.5s-0.672 1.5-1.5 1.5-1.5-0.672-1.5-1.5 0.672-1.5 1.5-1.5zM10.5 4c-1.379 0-2.5 1.122-2.5 2.5s1.121 2.5 2.5 2.5 2.5-1.122 2.5-2.5-1.121-2.5-2.5-2.5v0z"></path>
<path d="M6 11h4v1h-4v-1z"></path>
</svg>

<svg xmlns="http://www.w3.org/2000/svg" viewBox="0 0 16 16">
  <path d="M8 16A8 8 0 108 0a8 8 0 000 16zM8 1.5a6.5 6.5 0 110 13 6.5 6.5 0 010-13z"/>
  <path d="M6 6.5a.5.5 0 11-1 0 .5.5 0 011 0z"/>
  <path d="M5.5 5a1.5 1.5 0 11-.001 3.001A1.5 1.5 0 015.5 5zm0-1C4.122 4 3 5.122 3 6.5S4.122 9 5.5 9 8 7.878 8 6.5 6.878 4 5.5 4zM11 6.5a.5.5 0 11-1 0 .5.5 0 011 0z"/>
  <path d="M10.5 5a1.5 1.5 0 11-.001 3.001A1.5 1.5 0 0110.5 5zm0-1C9.121 4 8 5.122 8 6.5S9.121 9 10.5 9 13 7.878 13 6.5 11.879 4 10.5 4zM6 11h4v1H6v-1z"/>
</svg>
